X:074 
T:How Far to Ennis?* (reel)
F:file ID: cre.4/074how_far
B:CRE4.139: gan ainm
S:Sheahan MS
Q:180
L:1/8
M:4/4
R:reel
K:G
(3D/E/F/|GBdB cBAF|G2 Bd egdB|GBdB cBAG|FDAD BDAD|
GBdB cBAF|G2 Bd egdB|GBdB cBAG|FGAd BGG:|
|:B|g2 fg ec ~B2|c2 cB cdef|g2 fd ec ~B2|ea~a2 fdef|
g2 fg ec B2|c2 cB cdef|g3g a3a|b2 ba ged:|


%%%

